qtOfs/res/icons/about.svg

<svg width="160" xmlns="http://www.w3.org/2000/svg" height="160" viewBox="0 0 128 128">
<g fill="#003b72">
<path d="m40.89,25.28c11.2-3 23.38-5.68 34.68-1.66 6.73,2.2 12.41,8.08 13.08,15.31 1.09,7.25-2.79,14.02-7.58,19.13-5.25,5.82-11.8,12.02-11.33,20.57-4.57,.03-9.14-.08-13.71,.07-.09-5.69 1.23-11.48 4.35-16.3 2.63-4.25 6.37-7.63 9.42-11.55 3.34-4.21 3.78-11.38-.89-14.81-8.34-5.34-18.52-1.67-26.86,1.7-.32-4.16-.8-8.31-1.16-12.46Z"/>
<path d="m54.98,85.85c5.25-.01 10.51-.02 15.77,.01 0,5.26 .01,10.53-.01,15.8-5.25,0-10.5,0-15.76,0-.02-5.27-.01-10.54 0-15.81Z"/>
</g>
</svg>

<?xml version="1.0" encoding="UTF-8" ?>
<!DOCTYPE svg PUBLIC "-//W3C//DTD SVG 1.1//EN" "http://www.w3.org/Graphics/SVG/1.1/DTD/svg11.dtd">
<svg width="128pt" height="128pt" viewBox="0 0 128 128" version="1.1" xmlns="http://www.w3.org/2000/svg">
<g id="#003b72ff">
<path fill="#003b72" opacity="1.00" d=" M 40.89 25.28 C 52.09 22.28 64.27 19.60 75.57 23.62 C 82.30 25.82 87.98 31.70 88.65 38.93 C 89.74 46.18 85.86 52.95 81.07 58.06 C 75.82 63.88 69.27 70.08 69.74 78.63 C 65.17 78.66 60.60 78.55 56.03 78.70 C 55.94 73.01 57.26 67.22 60.38 62.40 C 63.01 58.15 66.75 54.77 69.80 50.85 C 73.14 46.64 73.58 39.47 68.91 36.04 C 60.57 30.70 50.39 34.37 42.05 37.74 C 41.73 33.58 41.25 29.43 40.89 25.28 Z" />
<path fill="#003b72" opacity="1.00" d=" M 54.98 85.85 C 60.23 85.84 65.49 85.83 70.75 85.86 C 70.75 91.12 70.76 96.39 70.74 101.66 C 65.49 101.66 60.24 101.66 54.98 101.66 C 54.96 96.39 54.97 91.12 54.98 85.85 Z" />
</g>
</svg>
